X:1
P: Dominion Reel
R: reel
C: New England
C: Ryan's Mammoth Collection, arr. T. Traub 8-10-03
M: 4/4
L: 1/8
K: C
|: G2 |"C"c2 c2 "G"BcdB|"C"cega gece|"F"f2 fd "C"e2 ec|"G"dcBA GABG|"C"c2 c2 "G"BcdB|
"C"cega gece|"F"f2 fd "C"e2 ec|"G"dcBd "C"c2 :||: G2|"C"cege cege|"Dm"defe "G"dcBd|
"C"cege cege|"D"dg^fa "G"g2 G2|"C"cege cege|"F"f2 fe dcBA|"G"GABc defd|"C"ec"G"dB "C"c2 :|
